X:1
T:En desirant que
T:En desirant que
T:Cornelius Canis
C:Cornelius Canis
%%score [ 1 2 [ 3 4 ] ]
L:1/8
Q:1/4=76
M:2/2
K:F
V:1 treble nm="Superius" snm="S"
V:2 treble nm="Altus" snm="A"
V:3 treble-8 nm="Tenor 1" snm="T 1"
V:4 treble-8 nm="Tenor 2" snm="T 2"
V:1
 z4 d4 | d2 d2 f2 d2 | c2 d2 e2 f2- | f2 ed c2 d2 |"^b" e2 d4 c2 | d4 z2 d2 | d2 d2 f2 d2 | %7
w: En|de- si- rant que|je vous voy- *|||e, en|de- si- rant que|
 c2 d2 e2 d2- | dc BA B2 A2- | AG G4 F2 | G4 z2 c2 | c2 B2 A2 G2 | B2 A2 G3 F/E/ | F2 G4 F2 | %14
w: je vous voy- *|||e, à|vo- stre'hon- neur et|mon plai- * * *||
 G2 B2 AB cA | B2 c3 A d2- | d2 c2 d4 | z2 d2 d2 c2 | B2 d2 c2 B2- | BA/G/ A2 B4- | B2 A2 G2 A2- | %21
w: sir, et mon _ _ _|_ plai- * *|* * sir,|qui se- roit|brief- ve- ment sans|_ _ _ _ men-||
 A2 GF G4 | F3 G A2 B2 | A3 B c2 d2- |"^#" d2 c2 d4 | z2 d2 d2 d2 | B3 A G2 c2- | cB AG F2 B2 | %28
w: |* * * tir|sans _ _ men-|* * tir,|s'il fust ce|que _ _ sou-|* * * * * hai-|
"^#" A2 G4 F2 | G4 z2 d2 | d2 d2 B3 A | G2 c3 B AG | F2 B2 A2 G2- |"^#" G2 F2 G4- | G8- | G8- | %36
w: te- * *|roye, s'il|fust ce que _|_ sou- * * *|* hai- * *|* te- roye.|_||
 G8- | G8 |] %38
w: ||
V:2
 G4 G2 G2 | B2 G2 F2 G2 | A2 B2 G2 F2 | B4 A4 | z4 z2 G2 | G2 G2 B2 G2 | F2 G2 A2 B2 | A2 F3 GAF | %8
w: En de- si-|rant que je vous|voy- * * *|* e,|en|de- si- rant que|je vous voy- *||
"^b" G4 E2 F2 | D2 C2 D4 | z2 G2 G2 F2 | E2 D2 F2 E2 | DEFD E2 F2 | C4 D2 F2 | E2 D2 E4 | %15
w: |* * e,|à vo- stre'hon-|neur et mon plai-||||
 D2 A4 G2 | A4 z2 A2 | A2 G2 F2 A2 | G2 F2 ED G2- | G2 F2 G2 G,/A,/B,/C/ | DE F2 B,2 A,G, | %21
w: |sir, qui|se- roit brief- ve-|ment sans men- * *||* * tir, qui se- *|
 A,2 B,2 G,4 | A,3 B, C2 D2 | A,2 A4 G2 | A4 F4- | F4 G2 G2 | G2 _E4 E2 | C2 F4 F2 |"^b" E2 C2 D4 | %29
w: roit brief- *|ve- * * ment|sans men- *|* tir,|_ s'il fust|ce que sou-|hai- * te-|roy- * *|
 B,8 | G2 G2 G2 _E2- | E2 _E2 C2 F2- | F2 F2 E2 C2 | D4 D2 D2- | D2 B,2 _E4 |"^b" D4 E2 C2 | %36
w: e,|s'il fust ce que|_ sou- hai- *|* te- roy- *|e, s'il fust|_ ce que|sou- hai- te-|
"^b" E6 DC | D8 |] %38
w: roy- * *|e,|
V:3
 z8 | z8 | z4 z2 d2 | d2 d2 f2 d2 | c2 d2 _e4 | d8 | z2 d2 d2 d2 | f2 d2 c2 d2 | B3 c dB c2 | %9
w: ||En|de- si- rant que|je vous voy-|e,|en de- si-|rant que je vous|voy- * * * *|
 B2 AG A4 | G4 z4 | z8 | z2 c2 c2 B2 | A2 G2 B2 A2 | G4 z2 g2 | g2 f2 e2 d2 | f2 e2 d4 | z8 | z8 | %19
w: |e,||à vo- stre'hon-|neur en mon plai-|sir, à|vo- stre'hon- neur et|mon plai- sir,|||
 d4 d2 d2 | B2 c2 _e2 d2 | c2 d4 c2 | d2 f2 e2 d2 | f4 e2 d2 | e4 d4 | z4 d2 d2 | d2 B2 c2 c2 | %27
w: qui se- roit|brief- ve- ment sans|men- * *|||* tir,|s'il fust|ce que sou- hai-|
 A2 d4 d2 | cB AG A4 | G8 | d2 d2 d2 B2 | c2 c2 A2 d2- | d2 d2 cB AG | A4 G2 B2- | Bc d3 c c2- | %35
w: * * te|roy- * * * *|e,|s'il fust ce que|sou- hai- * *|* te- roy- * * *|e, s'il fust|_ _ ce _ que|
 c2 B2 c2 G2 | c4 B4- | B8 |] %38
w: _ sou- hai- te-|roy- e.|_|
V:4
 z8 | z8 | z8 | z8 | z8 |"^#" G4 G2 G2 | B2 G2 F2 G2 | A2 B2 A2 D2 | G6 F2 |"^b" G2 E2 D4 | %10
w: |||||En de- si-|rant que je vous|voy- * * e,|en de|si- rant que|
 G2 B2 A4 | G4 z2 G2 | G2 F2 E2 D2 |"^b" F2 E2 D4 | z2 d2 d2 c2 | B2 A2 c2 B2 | A4 D4 | z8 | z8 | %19
w: je vous voy-|e, à|vo- stre'hon- neur et|mon plai- sir,|à vo- stre'hon-|neur et mon _|plai- sir|||
 z4 G4 | G2 F2 _E2 F2- |"^b""^b" F2 ED E4 | D2 D2 C2 B,C | DEFG A2 B2 | A4 D2 d2 | d2 d2 B3 A | %26
w: qui|se- roit brief- ve-|* * * ment|sans men- * * *||* tir, s'il|fust ce que _|
"^b" G2 G2 E2 C2 |"^b" F3 E D2 B,2 | C2 _E2 D4 | z2 d2 d2 d2 | B3 A G2 G2 |"^b" E2 C2 F3 E | %32
w: _ sou- hai- *|* * * te-|roy- * e.|s'il fust ce|que _ _ sou-|hai- * * *|
"^b" D2 B,2 C2 _E2 | D4 z2 G2 | G2 G2 _E2 C2 | G2 G2 C4 | G8- | G8 |] %38
w: * te roy- *|e s'il|fust ce que sou-|hai- te- roy-|e.|_|

